img/icons/paywall/icon-calendar.svg

<svg width="28" height="28" viewBox="0 0 28 28" fill="none" xmlns="http://www.w3.org/2000/svg">
<g clip-path="url(#clip0_13793_7274)">
<path d="M22.1758 2.79119H21V1.68869C21 1.37369 20.8861 1.10682 20.6582 0.888065C20.4303 0.669315 20.1523 0.55994 19.8242 0.55994C19.5143 0.55994 19.2454 0.669315 19.0176 0.888065C18.7897 1.10682 18.6758 1.37369 18.6758 1.68869V2.79119H9.32422V1.68869C9.32422 1.37369 9.21029 1.10682 8.98242 0.888065C8.75456 0.669315 8.48568 0.55994 8.17578 0.55994C7.84766 0.55994 7.56966 0.669315 7.3418 0.888065C7.11393 1.10682 7 1.37369 7 1.68869V2.79119H5.82422C5.02214 2.79119 4.26562 2.93994 3.55469 3.23744C2.86198 3.53494 2.2513 3.93744 1.72266 4.44494C1.19401 4.95244 0.77474 5.54744 0.464844 6.22994C0.154948 6.91244 0 7.63869 0 8.40869V21.8487C0 22.6187 0.154948 23.3449 0.464844 24.0274C0.77474 24.6924 1.19401 25.2787 1.72266 25.7862C2.2513 26.2937 2.86198 26.6962 3.55469 26.9937C4.26562 27.2912 5.02214 27.4399 5.82422 27.4399H22.1758C22.9779 27.4399 23.7344 27.2912 24.4453 26.9937C25.138 26.6962 25.7487 26.2937 26.2773 25.7862C26.806 25.2787 27.2253 24.6924 27.5352 24.0274C27.8451 23.3449 28 22.6187 28 21.8487V8.40869C28 7.63869 27.8451 6.91244 27.5352 6.22994C27.2253 5.54744 26.806 4.95244 26.2773 4.44494C25.7487 3.93744 25.138 3.53494 24.4453 3.23744C23.7344 2.93994 22.9779 2.79119 22.1758 2.79119ZM5.82422 5.04869H22.1758C23.1419 5.04869 23.9668 5.37682 24.6504 6.03307C25.334 6.68932 25.6758 7.48119 25.6758 8.40869V9.51119H2.32422V8.40869C2.32422 7.48119 2.66602 6.68932 3.34961 6.03307C4.0332 5.37682 4.85807 5.04869 5.82422 5.04869ZM22.1758 25.2087H5.82422C4.85807 25.2087 4.0332 24.8806 3.34961 24.2243C2.66602 23.5681 2.32422 22.7762 2.32422 21.8487V11.7687H25.6758V21.8487C25.6758 22.7762 25.334 23.5681 24.6504 24.2243C23.9668 24.8806 23.1419 25.2087 22.1758 25.2087ZM22.1758 16.2312C22.1758 16.5462 22.0618 16.8131 21.834 17.0318C21.6061 17.2506 21.3281 17.3599 21 17.3599H7C6.67188 17.3599 6.39388 17.2506 6.16602 17.0318C5.93815 16.8131 5.82422 16.5462 5.82422 16.2312C5.82422 15.9337 5.93815 15.6756 6.16602 15.4568C6.39388 15.2381 6.67188 15.1287 7 15.1287H21C21.3281 15.1287 21.6061 15.2381 21.834 15.4568C22.0618 15.6756 22.1758 15.9337 22.1758 16.2312ZM14 20.7199C14 21.0349 13.8861 21.3018 13.6582 21.5206C13.4303 21.7393 13.1523 21.8487 12.8242 21.8487H7C6.67188 21.8487 6.39388 21.7393 6.16602 21.5206C5.93815 21.3018 5.82422 21.0349 5.82422 20.7199C5.82422 20.4049 5.93815 20.1381 6.16602 19.9193C6.39388 19.7006 6.67188 19.5912 7 19.5912H12.8242C13.1523 19.5912 13.4303 19.7006 13.6582 19.9193C13.8861 20.1381 14 20.4049 14 20.7199Z" fill="#C47A2C"/>
</g>
<defs>
<clipPath id="clip0_13793_7274">
<rect width="28" height="28" fill="white" transform="matrix(1 0 0 -1 0 28)"/>
</clipPath>
</defs>
</svg>

<svg width="28" height="28" fill="none" xmlns="http://www.w3.org/2000/svg"><g clip-path="url(#clip0_13793_7274)"><path d="M22.176 2.791H21V1.69c0-.315-.114-.582-.342-.8a1.16 1.16 0 00-.834-.33c-.31 0-.579.11-.806.33a1.067 1.067 0 00-.342.8v1.1H9.324v-1.1c0-.315-.114-.582-.342-.8a1.126 1.126 0 00-.806-.33c-.328 0-.606.11-.834.33a1.068 1.068 0 00-.342.8v1.1H5.824a5.82 5.82 0 00-2.27.446 6.09 6.09 0 00-1.831 1.208A5.737 5.737 0 00.465 6.23 5.208 5.208 0 000 8.409v13.44c0 .77.155 1.496.465 2.178a5.84 5.84 0 001.258 1.76 6.09 6.09 0 001.832 1.207 5.82 5.82 0 002.27.446h16.35c.803 0 1.56-.149 2.27-.446a6.09 6.09 0 001.832-1.208 5.832 5.832 0 001.258-1.759c.31-.682.465-1.408.465-2.178V8.409c0-.77-.155-1.497-.465-2.18a5.736 5.736 0 00-1.258-1.784 6.09 6.09 0 00-1.832-1.208 5.819 5.819 0 00-2.27-.446zM5.824 5.05h16.352c.966 0 1.79.328 2.474.984.684.656 1.026 1.448 1.026 2.376v1.1H2.324v-1.1c0-.928.342-1.72 1.026-2.376.683-.656 1.508-.984 2.474-.984zm16.352 20.16H5.824c-.966 0-1.79-.328-2.474-.985-.684-.656-1.026-1.448-1.026-2.375V11.77h23.352v10.08c0 .927-.342 1.72-1.026 2.375-.683.657-1.508.985-2.474.985zm0-8.978c0 .315-.114.582-.342.8a1.16 1.16 0 01-.834.329H7c-.328 0-.606-.11-.834-.328a1.067 1.067 0 01-.342-.8c0-.298.114-.556.342-.775A1.16 1.16 0 017 15.129h14c.328 0 .606.11.834.328.228.219.342.477.342.774zM14 20.72c0 .315-.114.582-.342.8a1.16 1.16 0 01-.834.329H7a1.16 1.16 0 01-.834-.328 1.068 1.068 0 01-.342-.801c0-.315.114-.582.342-.8A1.16 1.16 0 017 19.59h5.824c.328 0 .606.11.834.328.228.22.342.486.342.8z" fill="#C47A2C"/></g><defs><clipPath id="clip0_13793_7274"><path fill="#fff" transform="matrix(1 0 0 -1 0 28)" d="M0 0h28v28H0z"/></clipPath></defs></svg>
